X: 181
T:Up With Aily
M:3/2
L:1/4
Q:210
A:England
K:C
e2 A2 a2|g/a/2 b e ^g a2| e g/2f/2 e g e c|d g2 d B G| c e f2 e f| d4 c2 :|
|:e c2 e g e|d B2 d g d| c e A c D A| ^G3 A B2|c e2 B c A ^f b2 f ^g e| a e f/e/ d e/d/ c| c3 B A2:|

